build/svg/cmd/sc_numberformatpercent.svg

<?xml version="1.0" encoding="UTF-8" standalone="no"?>
<svg
   xmlns:dc="http://purl.org/dc/elements/1.1/"
   xmlns:cc="http://creativecommons.org/ns#"
   xmlns:rdf="http://www.w3.org/1999/02/22-rdf-syntax-ns#"
   xmlns:svg="http://www.w3.org/2000/svg"
   xmlns="http://www.w3.org/2000/svg"
   xmlns:sodipodi="http://sodipodi.sourceforge.net/DTD/sodipodi-0.dtd"
   xmlns:inkscape="http://www.inkscape.org/namespaces/inkscape"
   viewBox="0 0 16 16"
   version="1.1"
   id="svg4"
   sodipodi:docname="sc_numberformatpercent.svg"
   inkscape:version="0.92.5 (2060ec1f9f, 2020-04-08)"
   inkscape:export-filename="/home/jupiter007/Libreoffice yaru theme fullcolor/build/cmd/sc_numberformatpercent.png"
   inkscape:export-xdpi="95"
   inkscape:export-ydpi="95"><metadata
   id="metadata10">
  <rdf:RDF>
    <cc:Work
       rdf:about="">
      <dc:format>image/svg+xml</dc:format>
      <dc:type
         rdf:resource="http://purl.org/dc/dcmitype/StillImage" />
    </cc:Work>
  </rdf:RDF>
</metadata>
<defs
   id="defs8" />
<sodipodi:namedview
   pagecolor="#ffffff"
   bordercolor="#666666"
   borderopacity="1"
   objecttolerance="10"
   gridtolerance="10"
   guidetolerance="10"
   inkscape:pageopacity="0"
   inkscape:pageshadow="2"
   inkscape:window-width="1920"
   inkscape:window-height="1011"
   id="namedview6"
   showgrid="true"
   inkscape:zoom="59"
   inkscape:cx="9.188795"
   inkscape:cy="8.6165043"
   inkscape:window-x="1920"
   inkscape:window-y="32"
   inkscape:window-maximized="1"
   inkscape:current-layer="svg4">
  <inkscape:grid
     type="xygrid"
     id="grid829" />
</sodipodi:namedview>


/&gt;<path
   sodipodi:nodetypes="cccscsccccccccscscccccc"
   inkscape:connector-curvature="0"
   id="path4237-1"
   d="m 4.9941159,0.9997084 c -1.2582,0.0144999 -2.178891,-0.030604 -2.931641,0.3847656 -0.37637,0.20766 -0.673231,0.5593868 -0.837891,0.9980469 -0.16467,0.43867 -0.224609,0.9595875 -0.224609,1.6171874 v 1.4882811 6.5123036 c 0,0.657609 0.0599,1.178576 0.224609,1.617188 0.16468,0.438611 0.461531,0.788523 0.837891,0.996092 0.75272,0.415131 1.673541,0.37165 2.931641,0.386719 h 0.002 6.0058591 0.0039 c 1.25819,-0.0145 2.178891,0.0306 2.931641,-0.384766 0.37637,-0.20766 0.673221,-0.559386 0.837891,-0.998045 0.164539,-0.438671 0.224618,-0.959579 0.224618,-1.617188 V 5.4665054 3.9997083 c 0,-0.6575999 -0.0599,-1.1785775 -0.224609,-1.6171874 -0.16468,-0.4386 -0.461531,-0.7885339 -0.837891,-0.9960938 -0.75277,-0.4151299 -1.673601,-0.3716388 -2.931691,-0.3867187 h -0.002 -6.0058592 z"
   style="font-style:normal;font-variant:normal;font-weight:normal;font-stretch:normal;font-size:15px;line-height:125%;font-family:Ubuntu;-inkscape-font-specification:Ubuntu;text-align:center;letter-spacing:0px;word-spacing:0px;writing-mode:lr-tb;text-anchor:middle;display:inline;opacity:0.6;fill:#000000;fill-opacity:1;stroke:none;stroke-width:0.99980211" />
<path
   inkscape:connector-curvature="0"
   id="path1993"
   d="m 7.9833439,2.0268931 c -1.556581,0.010796 -3.10999,-0.011752 -4.659941,0.038775 -0.461229,0.042668 -1.016188,0.2064194 -1.15534,0.7099668 -0.218994,0.6353464 -0.108414,1.3337871 -0.145796,1.9819242 -0.0078,2.2970847 -0.02297,5.5964288 0.02152,7.8857808 0.0391,0.461929 0.202551,1.012665 0.698756,1.163665 0.632456,0.225082 1.284144,0.12274 1.935974,0.154298 1.424235,0.0068 2.850563,0.01102 4.2764202,0.01131 1.7045309,3.5e-4 1.4083879,-0.005 3.1071899,-0.01851 0.511911,-0.01201 1.183699,0.01993 1.584745,-0.405191 0.421097,-0.539783 0.287073,-1.268021 0.322745,-1.903787 0.01187,-2.444324 0.02769,-5.9110966 -0.0219,-8.3567961 C 13.898437,2.8862906 13.777725,2.4253788 13.372578,2.2438557 12.704409,1.9497582 11.946373,2.0758368 11.246657,2.0382829 9.49225,2.02648 9.7377831,2.025799 7.9833439,2.0268931 Z"
   style="opacity:1;vector-effect:none;fill:#d85eca;fill-opacity:1;stroke:none;stroke-width:1;stroke-linecap:round;stroke-linejoin:bevel;stroke-miterlimit:4;stroke-dasharray:none;stroke-dashoffset:0;stroke-opacity:1"
   sodipodi:nodetypes="cccccccsccccccc" />
<path
   style="opacity:1;fill:#ffffff;fill-opacity:1;stroke:none;stroke-width:8.77999973;stroke-linecap:round;stroke-linejoin:round;stroke-miterlimit:4;stroke-dasharray:none;stroke-opacity:1"
   d="M 5.5 4 C 4.669 4 4 4.669 4 5.5 L 4 6.5 C 4 7.331 4.669 8 5.5 8 C 6.331 8 7 7.331 7 6.5 L 7 5.5 C 7 4.669 6.331 4 5.5 4 z M 5.5 5 C 5.777 5 6 5.3345 6 5.75 L 6 6.25 C 6 6.6655 5.777 7 5.5 7 C 5.223 7 5 6.6655 5 6.25 L 5 5.75 C 5 5.3345 5.223 5 5.5 5 z "
   id="rect819" />
<path
   id="path824"
   d="M 10.5,8 C 9.669,8 9,8.669 9,9.5 v 1 c 0,0.831 0.669,1.5 1.5,1.5 0.831,0 1.5,-0.669 1.5,-1.5 v -1 C 12,8.669 11.331,8 10.5,8 Z m 0,1 C 10.777,9 11,9.3345 11,9.75 v 0.5 C 11,10.6655 10.777,11 10.5,11 10.223,11 10,10.6655 10,10.25 V 9.75 C 10,9.3345 10.223,9 10.5,9 Z"
   style="opacity:1;fill:#ffffff;fill-opacity:1;stroke:none;stroke-width:8.77999973;stroke-linecap:round;stroke-linejoin:round;stroke-miterlimit:4;stroke-dasharray:none;stroke-opacity:1"
   inkscape:connector-curvature="0" />
<rect
   style="opacity:1;fill:#ffffff;fill-opacity:1;stroke:none;stroke-width:8.77999973;stroke-linecap:round;stroke-linejoin:round;stroke-miterlimit:4;stroke-dasharray:none;stroke-opacity:1"
   id="rect826"
   width="1"
   height="9"
   x="10.813708"
   y="-4.5"
   ry="0.5"
   transform="rotate(45)" />
</svg>

<svg xmlns="http://www.w3.org/2000/svg" viewBox="0 0 16 16">/&gt;<path d="M4.994 1c-1.258.014-2.179-.03-2.932.384a1.88 1.88 0 00-.837.999C1.06 2.82 1 3.343 1 4v8c0 .658.06 1.179.225 1.617.164.44.461.789.837.997.753.415 1.674.371 2.932.386h6.012c1.258-.014 2.179.03 2.932-.384a1.88 1.88 0 00.837-.999c.165-.438.225-.96.225-1.617V4c0-.658-.06-1.179-.225-1.617a1.875 1.875 0 00-.837-.997c-.753-.415-1.674-.371-2.932-.386H4.998z" style="line-height:125%;-inkscape-font-specification:Ubuntu;text-align:center" font-weight="400" font-size="15" font-family="Ubuntu" letter-spacing="0" word-spacing="0" text-anchor="middle" opacity=".6"/><path d="M7.983 2.027c-1.556.01-3.11-.012-4.66.039-.46.042-1.016.206-1.155.71-.219.635-.108 1.333-.146 1.982-.008 2.297-.023 5.596.022 7.885.039.462.202 1.013.699 1.164.632.225 1.284.123 1.936.154 1.424.007 2.85.011 4.276.012 1.704 0 1.408-.005 3.107-.019.512-.012 1.184.02 1.585-.405.421-.54.287-1.268.323-1.904.011-2.444.027-5.911-.022-8.357-.05-.402-.17-.863-.575-1.044-.669-.294-1.427-.168-2.126-.206-1.755-.012-1.51-.012-3.264-.011z" fill="#d85eca"/><path d="M5.5 4C4.669 4 4 4.669 4 5.5v1C4 7.331 4.669 8 5.5 8S7 7.331 7 6.5v-1C7 4.669 6.331 4 5.5 4zm0 1c.277 0 .5.335.5.75v.5c0 .415-.223.75-.5.75S5 6.665 5 6.25v-.5c0-.415.223-.75.5-.75zM10.5 8C9.669 8 9 8.669 9 9.5v1c0 .831.669 1.5 1.5 1.5s1.5-.669 1.5-1.5v-1c0-.831-.669-1.5-1.5-1.5zm0 1c.277 0 .5.335.5.75v.5c0 .415-.223.75-.5.75s-.5-.335-.5-.75v-.5c0-.415.223-.75.5-.75z" fill="#fff"/><rect width="1" height="9" x="10.814" y="-4.5" ry=".5" transform="rotate(45)" fill="#fff"/></svg>
